X:10
T:Four Little Johnny Cakes
T:1938 Australia
C:words Banjo Paterson 1864-1941
C:music Louis Lavater 1867-1953
S:http://nla.gov.au/nla.obj-175483431
L:1/8
M:4/4
I:linebreak $
K:F
C | F2 FF AFFG | AFFF F2 D>D | G>G GG BGGA | B2{G} AB c2 z c/c/ | ddcB c A2{A} G |$ BBAG A2 z C | 
w:Hurr-ah for the Lach-lan lads, and join me in a cheer. That is the place to go to make an ea-sy cheque each year With a toad-skin in my pock-et I borr-owed from a friend. Oh
(3FFF FF AFFG |[M:2/4] AG{=B} A=B |[M:4/4] c4- c2 C>C | F<F F2 A2 F2 | AFFF F2 z D |$ GGGG BGGA | 
w:Oh, isn't it nice and co-sy to be cam-ping in the bend? *With my lit-tle round flour-bag sit-ting on a stump. My My little tea and sug-ar bag
BGAB c2 c>c | dc B2 c2 A2 | c2 A>G A2 z C | F2 FF AFFG | AFFF F2 z2 :| 
w: looking nice and plump. A lit-tle fat* cod-fish just off the* hook. And four lit-tle john-ny cakes, a cre-dit to the cook

